src/assets/media/home/dots_home-works.svg

<svg width="133" height="13" viewBox="0 0 133 13" fill="none" xmlns="http://www.w3.org/2000/svg">
<path d="M2.40222 7.57252C1.06156 7.90266 0.242375 9.25712 0.57252 10.5978C0.902665 11.9384 2.25712 12.7576 3.59778 12.4275L2.40222 7.57252ZM69.927 3.06471L69.9778 0.565224L69.927 3.06471ZM129.52 12.4534C130.875 12.7186 132.188 11.835 132.453 10.48C132.719 9.12502 131.835 7.81162 130.48 7.54649L129.52 12.4534ZM3.59778 12.4275C4.89548 12.1079 6.69532 11.6557 9.01695 11.1288L7.91041 6.25281C5.53371 6.79217 3.68187 7.2574 2.40222 7.57252L3.59778 12.4275ZM19.9178 8.97249C23.172 8.41951 26.8434 7.87275 30.9217 7.38242L30.3249 2.41817C26.1621 2.91866 22.4104 3.47726 19.0802 4.04315L19.9178 8.97249ZM42.0119 6.29917C45.5067 6.03391 49.2172 5.82186 53.1392 5.68303L52.9623 0.686163C48.9718 0.827418 45.1941 1.04325 41.6335 1.31351L42.0119 6.29917ZM64.2886 5.5008C66.1138 5.50498 67.9764 5.5256 69.8762 5.56419L69.9778 0.565224C68.0478 0.52602 66.1551 0.505063 64.3 0.500814L64.2886 5.5008ZM69.8762 5.56419C71.6004 5.59922 73.278 5.64303 74.9103 5.69488L75.069 0.697402C73.4174 0.644941 71.7207 0.600629 69.9778 0.565224L69.8762 5.56419ZM84.9292 6.13913C88.5178 6.34613 91.8437 6.5926 94.9269 6.86676L95.3697 1.88641C92.2338 1.60757 88.8563 1.35735 85.2171 1.14743L84.9292 6.13913ZM104.863 7.93381C108.608 8.41054 111.88 8.91764 114.742 9.41767L115.603 4.49226C112.667 3.97949 109.319 3.46071 105.494 2.97383L104.863 7.93381ZM124.531 11.3728C126.471 11.8013 128.141 12.1837 129.52 12.4534L130.48 7.54649C129.18 7.29214 127.614 6.93327 125.609 6.49045L124.531 11.3728Z" fill="#FFCB34"/>
</svg>

<svg xmlns="http://www.w3.org/2000/svg" fill="none" width="133" height="13" viewBox="0 0 133 13"><path d="M2.402 7.573a2.5 2.5 0 0 0 1.196 4.854L2.402 7.574Zm67.525-4.508.05-2.5-.05 2.5Zm59.593 9.388a2.5 2.5 0 1 0 .96-4.907l-.96 4.907ZM3.598 12.428c1.297-.32 3.097-.772 5.419-1.3L7.91 6.254c-2.376.54-4.228 1.004-5.508 1.32l1.196 4.854Zm16.32-3.456c3.254-.552 6.925-1.1 11.004-1.59l-.597-4.964c-4.163.5-7.915 1.06-11.245 1.625l.838 4.93ZM42.012 6.3c3.495-.265 7.205-.477 11.127-.616L52.962.686c-3.99.141-7.768.357-11.329.628l.379 4.985Zm22.277-.798c1.825.004 3.687.025 5.587.063l.102-4.999C68.048.526 66.155.505 64.3.501l-.011 5Zm5.587.063c1.724.035 3.402.079 5.034.13l.16-4.997a445.136 445.136 0 0 0-5.091-.132l-.102 5Zm15.053.575c3.589.207 6.915.454 9.998.728l.443-4.98c-3.136-.28-6.514-.53-10.153-.74L84.93 6.14Zm19.934 1.795c3.745.477 7.017.984 9.879 1.484l.861-4.926a220.06 220.06 0 0 0-10.109-1.518l-.631 4.96Zm19.668 3.439c1.94.428 3.61.81 4.989 1.08l.96-4.907c-1.3-.254-2.866-.613-4.871-1.056l-1.078 4.883Z" fill="#FFCB34"/></svg>
